assets/Dress/Flat/dress_flat.svg

<svg width="32" height="32" viewBox="0 0 32 32" fill="none" xmlns="http://www.w3.org/2000/svg">
<path d="M12.9287 5V2.58C12.9287 2.26 12.6687 2 12.3487 2H11.7087C11.3887 2 11.1287 2.26 11.1287 2.58V5.00072C10.4494 5.02526 9.96188 5.67282 10.1286 6.33L11.3793 11.0033V12.0174H11.3805L4.22867 26.91C3.55867 28.28 4.44165 30 5.98421 30C6.86343 30 7.13477 29.7278 7.39544 29.4664C7.63636 29.2247 7.86816 28.9922 8.56238 28.9922C9.29202 28.9922 9.53982 29.2391 9.79028 29.4886C10.0359 29.7334 10.2841 29.9807 10.9921 30C11.8464 30 12.1856 29.7047 12.4967 29.4337C12.7603 29.2042 13.0037 28.9922 13.5233 28.9922C14.0599 28.9922 14.3266 29.2183 14.6072 29.4564C14.9141 29.7167 15.2378 29.9912 15.9496 29.9998L15.967 29.9999L15.9843 30C16.7002 29.9914 17.0258 29.7167 17.3344 29.4564C17.6167 29.2183 17.8849 28.9922 18.4245 28.9922C18.947 28.9922 19.1919 29.2042 19.457 29.4337C19.7699 29.7047 20.111 30 20.9701 30C21.6821 29.9807 21.9317 29.7334 22.1787 29.4886C22.4306 29.2391 22.6798 28.9922 23.4136 28.9922C24.1117 28.9922 24.3449 29.2247 24.5871 29.4664C24.8493 29.7278 25.1222 30 26.0064 30C27.5577 30 28.4457 28.28 27.7719 26.91L20.8179 12.0174L20.8184 11.0033L22.0586 6.33C22.227 5.6665 21.7186 5.0128 21.0386 5.00019V2.58C21.0386 2.26 20.7786 2 20.4586 2H19.8186C19.4986 2 19.2386 2.26 19.2386 2.58V5H19.2186C17.5086 5.02 16.1386 6.21 16.0886 7.71C16.0486 6.22 14.6786 5.03 12.9786 5H12.9287Z" fill="#46A4FB"/>
<path d="M20.8189 11H11.3789V12H20.8189V11Z" fill="#6B438B"/>
</svg>

<svg xmlns="http://www.w3.org/2000/svg" width="32" height="32" fill="none"><path fill="#46A4FB" d="M12.929 5V2.58a.58.58 0 0 0-.58-.58h-.64a.58.58 0 0 0-.58.58V5a1.071 1.071 0 0 0-1 1.33l1.25 4.673v1.014h.002L4.228 26.91c-.67 1.37.213 3.09 1.755 3.09.88 0 1.15-.272 1.411-.534.241-.241.473-.474 1.167-.474.73 0 .978.247 1.228.497.246.244.494.492 1.202.511.854 0 1.194-.295 1.505-.566.263-.23.507-.442 1.026-.442.537 0 .804.226 1.084.464.307.26.63.535 1.343.544h.034c.716-.009 1.042-.283 1.35-.544.283-.238.55-.464 1.09-.464.523 0 .768.212 1.033.442.313.27.654.566 1.513.566.712-.02.962-.267 1.209-.511.252-.25.5-.497 1.235-.497.698 0 .93.233 1.173.474.262.262.535.534 1.42.534 1.55 0 2.439-1.72 1.765-3.09l-6.954-14.893v-1.014l1.24-4.673A1.076 1.076 0 0 0 21.039 5V2.58a.58.58 0 0 0-.58-.58h-.64a.58.58 0 0 0-.58.58V5h-.02c-1.71.02-3.08 1.21-3.13 2.71-.04-1.49-1.41-2.68-3.11-2.71h-.05Z"/><path fill="#6B438B" d="M20.819 11h-9.44v1h9.44v-1Z"/></svg>
